X:0347
T:And will you be.
M:6/8
L:1/8
Q:3/8=120
I: :: ::
N:heavy double lines above and below both double bars
Z:Jack Campin * www.campin.me.uk * 2009
K:D
A|dcd D2d|ede E2e|fga agf|efd cBA|
  dcd D2d|ede E2e|fgf edc|dAF D2:|
a|aga F2a|gfg E2g|fga agf|efd cBA|
  G2b F2a|E2g efg|fed ABc|dAF D2:|

